X: 834
T: Sergt. Cahill's Favorite
N:"Collected by Cahill"
B:O'Neill's 834
Z:Transcribed by Dan G. Petersen, dangp@post6.tele.dk
M:6/8
L:1/8
K:G
D2E G2A|B2d dBG|B2c A2B|G2A BGE|
D2E G2A|B2d dBG|B3 A2B|(G3 G2)z:|
g2d e2d|g2d e2d|B3 A2B|G2A BGE|
D2E G2A|B2d dBG|B3 A2B|(G3 G2)z:|


